dist/images/nav-home.svg

<svg width="24" height="24" viewBox="0 0 24 24" fill="none" xmlns="http://www.w3.org/2000/svg">
<g clip-path="url(#clip0_2828_206)">
<path d="M23.3553 10.4388L23.3536 10.4372L13.5626 0.647484C13.1452 0.229922 12.5903 0 12.0002 0C11.4099 0 10.8551 0.229781 10.4376 0.647297L0.651549 10.432C0.648267 10.4353 0.644985 10.4388 0.641704 10.4421C-0.215352 11.304 -0.213852 12.7023 0.645923 13.562C1.03868 13.955 1.5575 14.1825 2.11218 14.2064C2.13468 14.2086 2.15742 14.2096 2.1803 14.2096H2.57053V21.4143C2.57053 22.84 3.73061 24 5.15679 24H8.98734C9.37559 24 9.69053 23.6852 9.69053 23.2969V17.6484C9.69053 16.9979 10.2198 16.4687 10.8704 16.4687H13.1298C13.7805 16.4687 14.3097 16.9979 14.3097 17.6484V23.2969C14.3097 23.6852 14.6245 24 15.0129 24H18.8435C20.2697 24 21.4297 22.84 21.4297 21.4144V14.2097H21.7916C22.3816 14.2097 22.9365 13.9799 23.3542 13.5624C24.2149 12.7013 24.2152 11.3005 23.3553 10.4388Z" fill="#5CB1FF"/>
</g>
<defs>
<clipPath id="clip0_2828_206">
<rect width="24" height="24" fill="white"/>
</clipPath>
</defs>
</svg>

<svg width="24" height="24" fill="none" xmlns="http://www.w3.org/2000/svg"><g clip-path="url(#clip0_2828_206)"><path d="M23.355 10.439l-.001-.002-9.791-9.79A2.195 2.195 0 0012 0c-.59 0-1.145.23-1.562.647L.652 10.432l-.01.01a2.212 2.212 0 00.004 3.12 2.197 2.197 0 001.534.648h.39v7.204A2.589 2.589 0 005.158 24h3.83a.703.703 0 00.704-.703v-5.649c0-.65.529-1.18 1.18-1.18h2.259c.65 0 1.18.53 1.18 1.18v5.649c0 .388.314.703.703.703h3.83a2.589 2.589 0 002.587-2.586V14.21h.362a2.213 2.213 0 001.564-3.77z" fill="#5CB1FF"/></g><defs><clipPath id="clip0_2828_206"><path fill="#fff" d="M0 0h24v24H0z"/></clipPath></defs></svg>
